source/img/press/icon/share.svg

<svg width="30" height="35" viewBox="0 0 30 35" fill="none" xmlns="http://www.w3.org/2000/svg">
<path d="M24.2647 0C21.1129 0 18.5294 2.59007 18.5294 5.75C18.5294 6.36248 18.6257 6.96428 18.8051 7.51923L9.33364 12.7993C8.34678 11.9958 7.09649 11.5 5.73529 11.5C2.58347 11.5 0 14.0901 0 17.25C0 20.4099 2.58347 23 5.73529 23C7.09649 23 8.34678 22.518 9.33364 21.7145L18.8189 26.9946C18.6385 27.5509 18.5294 28.1358 18.5294 28.75C18.5294 31.9099 21.1129 34.5 24.2647 34.5C27.4165 34.5 30 31.9099 30 28.75C30 25.5901 27.4165 23 24.2647 23C22.6818 23 21.2386 23.6632 20.1976 24.7139L10.9743 19.5721C11.2893 18.8619 11.4706 18.0732 11.4706 17.25C11.4706 16.4222 11.2926 15.6411 10.9743 14.9279L20.1838 9.78606C21.2258 10.8449 22.6747 11.5 24.2647 11.5C27.4165 11.5 30 8.90993 30 5.75C30 2.59007 27.4165 0 24.2647 0ZM24.2647 2.65385C25.9859 2.65385 27.3529 4.02433 27.3529 5.75C27.3529 7.47567 25.9859 8.84615 24.2647 8.84615C22.5435 8.84615 21.1765 7.47567 21.1765 5.75C21.1765 4.02433 22.5435 2.65385 24.2647 2.65385ZM5.73529 14.1538C7.45653 14.1538 8.82353 15.5243 8.82353 17.25C8.82353 18.9757 7.45653 20.3462 5.73529 20.3462C4.01406 20.3462 2.64706 18.9757 2.64706 17.25C2.64706 15.5243 4.01406 14.1538 5.73529 14.1538ZM24.2647 25.6538C25.9859 25.6538 27.3529 27.0243 27.3529 28.75C27.3529 30.4757 25.9859 31.8462 24.2647 31.8462C22.5435 31.8462 21.1765 30.4757 21.1765 28.75C21.1765 27.0243 22.5435 25.6538 24.2647 25.6538Z" fill="#333333"/>
</svg>

<svg width="30" height="35" fill="none" xmlns="http://www.w3.org/2000/svg"><path d="M24.265 0c-3.152 0-5.736 2.59-5.736 5.75a5.8 5.8 0 00.276 1.77L9.334 12.8a5.69 5.69 0 00-3.599-1.3C2.583 11.5 0 14.09 0 17.25S2.583 23 5.735 23a5.678 5.678 0 003.599-1.285l9.485 5.28a5.664 5.664 0 00-.29 1.755c0 3.16 2.584 5.75 5.736 5.75 3.151 0 5.735-2.59 5.735-5.75S27.416 23 24.265 23a5.728 5.728 0 00-4.067 1.714l-9.224-5.142a5.668 5.668 0 000-4.644l9.21-5.142a5.717 5.717 0 004.08 1.714C27.417 11.5 30 8.91 30 5.75S27.416 0 24.265 0zm0 2.654a3.072 3.072 0 013.088 3.096 3.072 3.072 0 01-3.088 3.096 3.072 3.072 0 01-3.088-3.096 3.072 3.072 0 013.088-3.096zm-18.53 11.5a3.072 3.072 0 013.089 3.096 3.072 3.072 0 01-3.089 3.096 3.072 3.072 0 01-3.088-3.096 3.072 3.072 0 013.088-3.096zm18.53 11.5a3.072 3.072 0 013.088 3.096 3.072 3.072 0 01-3.088 3.096 3.072 3.072 0 01-3.088-3.096 3.072 3.072 0 013.088-3.096z" fill="#333"/></svg>
